material/.icons/material/bottle-wine.svg

<svg xmlns="http://www.w3.org/2000/svg" viewBox="0 0 24 24"><path d="M10 22a1 1 0 01-1-1V11c0-2 1-3.75 2-4V2.5a.5.5 0 01.5-.5h1a.5.5 0 01.5.5V7c1 .25 2 2 2 4v10a1 1 0 01-1 1h-4z"/></svg>

<?xml version="1.0" encoding="UTF-8"?><!DOCTYPE svg PUBLIC "-//W3C//DTD SVG 1.1//EN" "http://www.w3.org/Graphics/SVG/1.1/DTD/svg11.dtd"><svg xmlns="http://www.w3.org/2000/svg" xmlns:xlink="http://www.w3.org/1999/xlink" version="1.1" id="mdi-bottle-wine" width="24" height="24" viewBox="0 0 24 24"><path d="M10,22A1,1 0 0,1 9,21V11C9,9 10,7.25 11,7V2.5A0.5,0.5 0 0,1 11.5,2H12.5A0.5,0.5 0 0,1 13,2.5V7C14,7.25 15,9 15,11V21A1,1 0 0,1 14,22H10Z" /></svg>
